dist/img/icons/facebook.svg

<svg height="512pt" viewBox="0 0 512 512" width="512pt" xmlns="http://www.w3.org/2000/svg"><path d="m483.738281 0h-455.5c-15.597656.0078125-28.24218725 12.660156-28.238281 28.261719v455.5c.0078125 15.597656 12.660156 28.242187 28.261719 28.238281h455.476562c15.605469.003906 28.257813-12.644531 28.261719-28.25 0-.003906 0-.007812 0-.011719v-455.5c-.007812-15.597656-12.660156-28.24218725-28.261719-28.238281zm0 0" fill="#4267b2"/><path d="m353.5 512v-198h66.75l10-77.5h-76.75v-49.359375c0-22.386719 6.214844-37.640625 38.316406-37.640625h40.683594v-69.128906c-7.078125-.941406-31.363281-3.046875-59.621094-3.046875-59 0-99.378906 36-99.378906 102.140625v57.035156h-66.5v77.5h66.5v198zm0 0" fill="#fff"/></svg>

<svg height="512pt" viewBox="0 0 512 512" width="512pt" xmlns="http://www.w3.org/2000/svg"><path d="M483.738 0h-455.5C12.641.008-.004 12.66 0 28.262v455.5C.008 499.359 12.66 512.004 28.262 512h455.476c15.606.004 28.258-12.645 28.262-28.25V28.238C511.992 12.641 499.34-.004 483.738 0zm0 0" fill="#4267b2"/><path d="M353.5 512V314h66.75l10-77.5H353.5v-49.36c0-22.386 6.215-37.64 38.316-37.64H432.5V80.371c-7.078-.941-31.363-3.047-59.621-3.047-59 0-99.379 36-99.379 102.14V236.5H207V314h66.5v198zm0 0" fill="#fff"/></svg>
